src/topics/icons/typeform.svg

<svg height="407" preserveAspectRatio="xMidYMid" viewBox="0 0 256 407" width="256" xmlns="http://www.w3.org/2000/svg"><path d="m215.946858 1.30253648h39.731316v405.02617852h-39.731316z" fill="#89c6be"/><path d="m.40801883 93.5502721h49.78909557v-92.69200565h65.9864406v92.69200565h59.62474v50.8318959h-59.62474v165.058658c0 7.170024.290009 13.358953.870029 18.535932.573848 5.189321 1.92517 9.570317 4.047793 13.1615 2.122624 3.585013 5.300389 6.275314 9.557976 8.070906 4.239077 1.795591 10.026928 2.690302 17.363554 2.690302 4.627813 0 9.261796-.092557 13.889609-.302351 4.633983-.191283 9.261796-.89471 13.895779-2.085601v52.627488c-7.336626.789813-14.475798 1.585797-21.417517 2.394121-6.94789.783643-14.093233 1.190891-21.417518 1.190891-17.369724 0-31.35806-1.703035-41.9711773-5.078253-10.6192879-3.387559-18.906158-8.379427-24.8852922-14.957091-5.991475-6.577665-10.0392686-14.852194-12.1618921-24.823588-2.1287939-9.952883-3.3813886-21.318791-3.757784-34.079214v-182.4037h-49.78909557z" fill="#33393f"/></svg>

<?xml version="1.0" encoding="UTF-8" standalone="no"?>
<svg width="256px" height="407px" viewBox="0 0 256 407" version="1.1" xmlns="http://www.w3.org/2000/svg" xmlns:xlink="http://www.w3.org/1999/xlink" preserveAspectRatio="xMidYMid">
    <g>
        <path d="M215.946858,1.30253648 L255.678174,1.30253648 L255.678174,406.328715 L215.946858,406.328715 L215.946858,1.30253648 Z" fill="#89C6BE"></path>
        <path d="M0.408018831,93.5502721 L50.1971144,93.5502721 L50.1971144,0.858266453 L116.183555,0.858266453 L116.183555,93.5502721 L175.808295,93.5502721 L175.808295,144.382168 L116.183555,144.382168 L116.183555,309.440826 C116.183555,316.61085 116.473564,322.799779 117.053584,327.976758 C117.627432,333.166079 118.978754,337.547075 121.101377,341.138258 C123.224001,344.723271 126.401766,347.413572 130.659353,349.209164 C134.89843,351.004755 140.686281,351.899466 148.022907,351.899466 C152.65072,351.899466 157.284703,351.806909 161.912516,351.597115 C166.546499,351.405832 171.174312,350.702405 175.808295,349.511514 L175.808295,402.139002 C168.471669,402.928815 161.332497,403.724799 154.390778,404.533123 C147.442888,405.316766 140.297545,405.724014 132.97326,405.724014 C115.603536,405.724014 101.6152,404.020979 91.0020827,400.645761 C80.3827948,397.258202 72.0959247,392.266334 66.1167905,385.68867 C60.1253155,379.111005 56.0775219,370.836476 53.9548984,360.865082 C51.8261045,350.912199 50.5735098,339.546291 50.1971144,326.785868 L50.1971144,144.382168 L0.408018831,144.382168 L0.408018831,93.5502721" fill="#33393F"></path>
    </g>
</svg>
